style-guide/assets/xd-icons-bell-tiny.svg

<?xml version="1.0" encoding="UTF-8"?>
<svg width="12px" height="12px" viewBox="0 0 12 12" version="1.1" xmlns="http://www.w3.org/2000/svg" xmlns:xlink="http://www.w3.org/1999/xlink">
    <!-- Generator: Sketch 51.3 (57544) - http://www.bohemiancoding.com/sketch -->
    <title>bell</title>
    <desc>Created with Sketch.</desc>
    <defs></defs>
    <g id="bell" stroke="none" stroke-width="1" fill="none" fill-rule="evenodd">
        <path d="M4.1808936,6 L4.6578936,3.138 C4.7678936,2.479 5.3318936,2 5.9998936,2 C6.6678936,2 7.2328936,2.478 7.3428936,3.138 L7.8198936,6 L4.1808936,6 Z M9.3158936,2.808 C9.0428936,1.181 7.6488936,0 5.9998936,0 C4.3518936,0 2.9568936,1.181 2.6848936,2.808 L2.0138936,6.835 C1.9648936,7.126 2.0468936,7.423 2.2378936,7.646 C2.4268936,7.87 2.7058936,8 2.9998936,8 L8.9998936,8 C9.2938936,8 9.5738936,7.87 9.7628936,7.646 C9.9528936,7.423 10.0348936,7.126 9.9868936,6.835 L9.3158936,2.808 Z M7,10 L5,10 C4.447,10 4,10.448 4,11 C4,11.552 4.447,12 5,12 L7,12 C7.553,12 8,11.552 8,11 C8,10.448 7.553,10 7,10" id="Fill-3" fill="#000000"></path>
    </g>
</svg>

<svg viewBox="0 0 12 12" xmlns="http://www.w3.org/2000/svg">
  <path d="M4.18 6l.478-2.862A1.357 1.357 0 0 1 6 2c.668 0 1.233.478 1.343 1.138L7.82 6H4.18zm5.136-3.192A3.353 3.353 0 0 0 6 0a3.352 3.352 0 0 0-3.315 2.808l-.671 4.027a.993.993 0 0 0 .224.811A.998.998 0 0 0 3 8h6a1 1 0 0 0 .987-1.165l-.671-4.027zM7 10H5a1 1 0 1 0 0 2h2a1 1 0 1 0 0-2"/>
</svg>
